X:1
T:Title
%%score { ( 1 4 ) | ( 2 3 ) }
L:1/8
M:6/4
K:Eb
V:1 treble nm="Grand Piano"
V:4 treble 
V:2 bass 
V:3 bass 
V:1
 z6 z4[Q:1/4=156] [EG]2 | [GB]2 [FA]2 [EG]2 [GB]2 [FA]2 [EG]2 | [EG]6 [DF]4 [EG]2 | %3
 [FA]2 G2 [DFA]2 [Ac]4 [GB]2 |[M:5/4] G2- G2- G6 |[M:1/4] G2 |[M:6/4] G2 _G2 =G2 [Ge]4 [_Gd]2 | %7
 [Ec]6 [EG]4 [EG]2 | =A4 F2 G4 A2 |[M:5/4] [B,DB]2- [B,DB]2- [B,DB]6 |[M:1/4] [DAB]2 | %11
[M:6/4] [EGB]4 [B,FA]2 [B,EG]4 [B,DF]2 | [EG]4 A2 [EGB]4 [Ge]2 | [GB]4 [Ac]2 [EGB]4 [B,FA]2 | %14
[M:5/4] [B,EG]2- [B,EG]2- [B,EG]6 |[M:1/4] [B,GB]2 |[M:6/4] [ce]4 [ce]2 [Bd]4 [Ac]2 | %17
[M:7/4] [EAc]6 [EGB]6 z2 |[M:6/4] [EGB]6 [A,FA]6 |[M:5/4] [B,EG]2- [B,EG]2- [B,EG]6 | %20
[M:1/4] [DAB]2 |[M:6/4] [GB]4 =A2 B4 [_Ac]2 | [GB]4 =A2 B4 B2 | e4- [Ae-]2 [Ge]4 [_Ge]2 | %24
 e4- [Ae-]2 [Ge]4 [B,GB]2 | [CAe]4 [ce]2 [Bd]4 [EAc]2 |[M:7/4] [EAc]6 [EGB]6 z2 | %27
[M:6/4] [EGB]6 [FA]6 |[M:5/4] [B,EG]2- [B,EG]2- [B,EG]6 |] %29
V:2
 z6 z4 [E,B,]2 | [E,E]4 [E,B,]2 [E,E]4 [E,B,]2 | [B,,B,]6 [B,,B,]4 [B,,B,]2 | %3
 z2 E2 B,,2 [E,E]4 [E,E]2 |[M:5/4] [E,B,E]2- [E,B,E]2- [E,B,E]6 |[M:1/4] [E,B,E]2 | %6
[M:6/4] .B,6 z6 | [C,C]6 [C,C]4 [C,C]2 | [F,CE]4 [F,=A,E]2 [F,B,E]4 [F,CE]2 | %9
[M:5/4] B,,2- B,,2- B,,6 |[M:1/4] B,,2 |[M:6/4] E,4 E,2 E,4 B,,2 | z4 F2 E,4 [E,B,]2 | %13
 [E,E]4 [E,E]2 B,,4 D,2 |[M:5/4] E,2- E,2- E,6 |[M:1/4] E,2 |[M:6/4] z6 z4 .A,2 | %17
[M:7/4] E,6 E,6 z2 |[M:6/4] B,,6 B,,6 |[M:5/4] E,2- E,2- E,6 |[M:1/4] B,,2 | %21
[M:6/4] z4[K:treble] _G2 =G4[K:bass] [E,E]2 | z4[K:treble] _G2 =G4 [EG]2 | B,4 C2 B,4 [E,=A,]2 | %24
 B,4 C2 B,4 E,2 | A,,4 [A,,A,]2 [A,,A,]4 A,,2 |[M:7/4] E,6 E,6 z2 |[M:6/4] B,,6 [B,,B,]6 | %28
[M:5/4] [E,,E,]2- [E,,E,]2- [E,,E,]6 |] %29
V:3
 x12 | x12 | x12 | .[B,,B,]6 z6 |[M:5/4] x10 |[M:1/4] x2 | %6
[M:6/4] [E,E]2- [E,=A,E]2 [E,B,E]2 [C,C]4 [G,=B,]2 | x12 | x12 |[M:5/4] x10 |[M:1/4] x2 | %11
[M:6/4] x12 | E,6 z6 | x12 |[M:5/4] x10 |[M:1/4] x2 | %16
[M:6/4] [A,,A,]4 [A,,A,]2 [A,,A,]4 A,,-[A,,C] |[M:7/4] x14 |[M:6/4] x12 |[M:5/4] x10 |[M:1/4] x2 | %21
[M:6/4] [E,E]12[K:treble][K:bass] | [E,E]12[K:treble] | E,12 | E,12 | x12 |[M:7/4] x14 | %27
[M:6/4] x12 |[M:5/4] x10 |] %29
V:4
 x12 | x12 | x12 | x12 |[M:5/4] x10 |[M:1/4] x2 |[M:6/4] x12 | x12 | x12 |[M:5/4] x10 |[M:1/4] x2 | %11
[M:6/4] x12 | B,6 z6 | x12 |[M:5/4] x10 |[M:1/4] x2 |[M:6/4] x12 |[M:7/4] x14 |[M:6/4] x12 | %19
[M:5/4] x10 |[M:1/4] x2 |[M:6/4] x12 | x12 | .G6 z6 | .G6 z6 | x12 |[M:7/4] x14 |[M:6/4] x12 | %28
[M:5/4] x10 |] %29

